icons/money-pound.svg

<svg width="24" height="24" viewBox="0 0 24 24" fill="none" xmlns="http://www.w3.org/2000/svg">
<path fill-rule="evenodd" clip-rule="evenodd" d="M14.1595 6.22252C13.5608 5.97505 12.8985 5.93276 12.274 6.10183C11.6494 6.27093 11.0955 6.64257 10.6984 7.1615C10.3017 7.67984 10.0837 8.31615 10.0792 8.97299V11.9636H13.9307C14.483 11.9636 14.9307 12.4114 14.9307 12.9636C14.9307 13.5159 14.483 13.9636 13.9307 13.9636H10.0792V16.4583C10.0792 16.4953 10.0772 16.5322 10.0731 16.569C10.0519 16.7585 10.0175 16.9455 9.97015 17.1287C10.7876 17.112 11.6029 17.2409 12.3783 17.5108C12.4091 17.5215 12.4394 17.5338 12.4691 17.5475C13.1144 17.8458 13.8155 18 14.5248 18C15.234 18 15.9351 17.8458 16.5804 17.5475C17.0818 17.3157 17.676 17.5343 17.9077 18.0356C18.1394 18.5369 17.9209 19.1312 17.4196 19.3629C16.5116 19.7826 15.5242 20 14.5248 20C13.543 20 12.5729 19.7902 11.6783 19.3851C11.0164 19.1614 10.3149 19.0819 9.62027 19.152C9.15688 19.1987 8.70347 19.3113 8.27322 19.4854C8.01028 19.6554 7.72696 19.7944 7.42855 19.8986C6.94355 20.0679 6.40917 19.8421 6.1924 19.3764C5.97563 18.9107 6.147 18.3565 6.58881 18.0944C6.82026 17.9571 7.05891 17.8337 7.30347 17.7248C7.43693 17.6242 7.55806 17.5064 7.66348 17.3735C7.88653 17.0923 8.03035 16.7549 8.07921 16.3971V13.9636H7C6.44772 13.9636 6 13.5159 6 12.9636C6 12.4114 6.44772 11.9636 7 11.9636H8.07921V8.96381C8.08573 7.87218 8.44743 6.81195 9.11011 5.94602C9.77289 5.07996 10.7005 4.45583 11.7514 4.17133C12.8024 3.8868 13.917 3.95818 14.9235 4.37418C15.9298 4.79013 16.7712 5.52704 17.3198 6.47C17.5975 6.94738 17.4357 7.55951 16.9583 7.83723C16.4809 8.11495 15.8688 7.9531 15.5911 7.47572C15.2618 6.90973 14.7584 6.47005 14.1595 6.22252Z" fill="black"/>
</svg>

<svg
  width="24"
  height="24"
  viewBox="0 0 24 24"
  xmlns="http://www.w3.org/2000/svg"
>
  <path
    fill-rule="evenodd"
    clip-rule="evenodd"
    d="M14.16 6.223a2.93 2.93 0 0 0-1.886-.121c-.625.169-1.178.54-1.576 1.06a3.015 3.015 0 0 0-.619 1.811v2.99h3.852a1 1 0 0 1 0 2h-3.852v2.495a.999.999 0 0 1-.006.111c-.021.19-.056.377-.103.56a6.896 6.896 0 0 1 2.408.382c.031.01.061.023.091.037a4.898 4.898 0 0 0 4.111 0 1 1 0 1 1 .84 1.815 6.899 6.899 0 0 1-5.742.022 4.893 4.893 0 0 0-3.405.1 3.96 3.96 0 0 1-.844.414 1 1 0 0 1-.84-1.805c.231-.137.47-.26.714-.37a2.009 2.009 0 0 0 .776-1.328v-2.432H7a1 1 0 1 1 0-2h1.08v-3a5.016 5.016 0 0 1 1.03-3.018 4.959 4.959 0 0 1 2.641-1.775 4.93 4.93 0 0 1 3.173.203A4.97 4.97 0 0 1 17.32 6.47a1 1 0 0 1-1.729 1.006 2.97 2.97 0 0 0-1.431-1.253z"
  />
</svg>
